X:1
T: Humours of Castle Lyons
C:
R:Jig
Q:128
K:G
M:6/8
L:1/16
|:G6 B2A2G2|d4G2 B2A2G2|A4B2 c4d2|e2c2A2 A4B2|
G6 B2A2G2|d2B2G2 B2A2G2|A2B2A2 B4A2|G2E2E2 E6|
g6 g2e2c2|g6 g2d2B2|A2G2A2 B4A2|G2E2E2 E6:|
